X:1
R: jig
M: 6/8
L: 1/8
K: Ador
T: Barbara Needham's
Q:133
"D5"Add cAA|GEG A2G|Add cAA|"C"GE[EC] D3|
"D5"Add cAA|GEG A2F|"G"GAB cBA|"C"GE[EC] D2:|
|:E/F/|"Em"G2E "Am"A2E|AcB A2 E/F/|"Em"G2E "Am"A2A|"G"GE[EC] D2 E/F/|
"Em"G2E "Am"A2E|AcB A2F|"G"GAB cBA|"C"GE[EC] D2:|
